X:1
T:Title
%%score { ( 1 3 ) | ( 2 4 5 ) }
L:1/8
M:4/4
K:F
V:1 treble nm="Grand Piano"
V:3 treble 
V:2 bass 
V:4 bass 
V:5 bass 
V:1
 z4 z2[Q:1/4=100] A>B | c2 D>[DG] [A,CF]2 [B,EA]>[B,EG] | [A,F]6 [B,CE][A,CF] | %3
 [CEG]2 [CDF]>[CEG] [CFA]2 [CGB][CFA] |[M:3/4] [CEG]6 |[M:1/4] [CFA]>[CGB] | %6
[M:4/4] [CAc]2 [B,D]>[B,DG] [A,CF]2 [CEG]>[CE_A] | [CFA]6 [DFB]>[DFB] | %8
 [CFA]2 [A,CF][CFA] [B,EG]2 [G,B,D][B,CE] |[M:3/4] [A,F]6 |[M:1/4] F>B |[M:4/4] d6 z2 | c6 z2 | %13
 d2 cc A2 GF |[M:3/4] [E-G]4 E2 |[M:1/4] [Ec]>[Ed] |[M:4/4] [Fc]6 z2 | f6 z2 | %18
 [Fc]2 [FA][CF] [DG]2 DE |[M:3/4] F6 |] %20
V:2
 z4 z2 [F,CF]>[F,G,F] | [F,A,F]2 [B,,B,]>[B,,B,] C,2 C,>C, | F,6 G,F, | C,2 C,>C, F,2 E,F, | %4
[M:3/4] C,6 |[M:1/4] F,>F, |[M:4/4] F,2 B,,>B,, C,2 C,>C, | F,6 B,,>B,, | C,2 C,C, C,2 C,C, | %9
[M:3/4] F,6 |[M:1/4][K:treble] D>D |[M:4/4] F6[K:bass][K:treble] z2 | F6[K:bass] z2 | %13
 [F,B,F]2 [F,A,F][F,A,F] [F,CF]2 [E,C][D,=B,] |[M:3/4] C,2 C,2 [C,C]2 |[M:1/4] [C,B,]>[C,B,] | %16
[M:4/4] [F,A,]2 F,>F, F,2 [F,CF]>[F,_E] | F6[K:treble][K:bass] z2 | %18
 [C,A,]2 [C,C][C,A,] [C,B,]2 [C,G,B,][C,B,C] |[M:3/4] [F,A,C]6 |] %20
V:3
 x8 | x8 | x8 | x8 |[M:3/4] x6 |[M:1/4] x2 |[M:4/4] x8 | x8 | x8 |[M:3/4] x6 |[M:1/4] x2 | %11
[M:4/4] z2 B,>B, B,2 F>A | z2 A,>A, A,2 Ac | x8 |[M:3/4] C2 C2 c2 |[M:1/4] x2 | %16
[M:4/4] z2 A,>A, A,2 A>F | z2 D>D B,2 [DGB][B,DG] | x8 |[M:3/4] x6 |] %20
V:4
 x8 | x8 | x8 | x8 |[M:3/4] x6 |[M:1/4] x2 |[M:4/4] x8 | x8 | x8 |[M:3/4] x6 | %10
[M:1/4][K:treble] x2 |[M:4/4] z2[K:bass] B,,>B,, B,,2[K:treble] C>F | %12
 z2[K:bass] F,>F, F,2 [F,CF][F,A,F] | x8 |[M:3/4] x6 |[M:1/4] x2 |[M:4/4] x8 | %17
 [B,,D]2 B,,>B,, z[K:treble] d[K:bass]B,,B,, | x8 |[M:3/4] x6 |] %20
V:5
 x8 | x8 | x8 | x8 |[M:3/4] x6 |[M:1/4] x2 |[M:4/4] x8 | x8 | x8 |[M:3/4] x6 | %10
[M:1/4][K:treble] x2 |[M:4/4] x2[K:bass] x4[K:treble] x2 | x2[K:bass] x6 | x8 |[M:3/4] x6 | %15
[M:1/4] x2 |[M:4/4] x8 | z4 B,,2[K:treble][K:bass] z2 | x8 |[M:3/4] x6 |] %20

